X:1
T:This Same Jesus
T:W. A. Post
T:This Same Jesus
T:Public Domain
T:Public Domain
T:Public Domain
C:W. A. Post
Z:Public Domain
%%score ( 1 2 ) ( 3 4 )
L:1/8
M:4/4
K:G
V:1 treble 
V:2 treble 
V:3 bass 
V:4 bass 
V:1
 [B,D] | [DG][DG][DG][DA] [GB]2 [GB][Gc] | [Gd][Gd][DG][DA] [GB]4 | [FA]2 [FA]2 [FA] [Fd]2 [Fc] | %4
w: 1.~Why|stand ye id- ly gaz- ing t’ward|Heav- en’s bless- èd height?|This same Je- sus is|
w: 2.~Re-|ceiv- ing His good Spir- it, we’ll|know His pre- sence near;|This same Je- sus is|
w: 3.~Our|low- ly ta- lents doub- ling, more|faith- ful may we be;|This same Je- sus is|
w: 4.~In|ev- ery time of tri- al we’ll|trust His change- less love;|This same Je- sus is|
 [GB]<[GB] [GB]>[DA] [DG]3 [B,D] | [DG][DG][DG][DA] [GB]2 [GB][Gc] | [Gd][DGd][DG][DA] [GB]4 | %7
w: com- ing back a- gain; The|shin- ing an- gels told it, ar-|rayed in spot- less white;|
w: com- ing back a- gain; He|fills us with His bless- ing, He|gives us love and cheer;|
w: com- ing back a- gain; And|spread a- broad His Gos- pel with|hap- py hearts and free;|
w: com- ing back a- gain; The|might- y King of Glo- ry still|reigns for us a- bove;|
 [GA]2 [Ge]2 [Gd] [GB]2 [DG] | [GB]<[GB] [FA]>[DA] [DG]4 ||"^Refrain" [Gd]2 [Gd]2 [Gd] [GB]3 | %10
w: This same Je- sus is|com- ing back a- gain.||
w: This same Je- sus is|com- ing back a- gain.|This same Je- sus,|
w: This same Je- sus is|com- ing back a- gain.||
w: This same Je- sus is|com- ing back a- gain.||
 [GB]2 [GB]2 [GB] [DG]2 [GB] | [GB][FA][FA][^E^G] [FA]2 [FA][Fd] | [Gd][G^c][GB][Gc] [Fd]3 D | %13
w: |||
w: this same Je- sus; Oh,|tell the joy- ful tid- ings to|all the sons of men! Oh,|
w: |||
w: |||
 [DG]>[DF] [DG][DA] [GB]3 [FA] | [GB]>[FA] [GB][Gc] [Gd]4 | [Ge]2 [Ge]2 [Gd] [GB]2 [DG] | %16
w: |||
w: us work and pray, re- joic-|ing ev- ery day; This|same Je- sus is com-|
w: |||
w: |||
 [GB]<[GB] [FA]>[DA] [DG]3 |] %17
w: |
w: ing back a- gain. *|
w: |
w: |
V:2
 x | x8 | x8 | x8 | x8 | x8 | x8 | x8 | x8 || x8 | x8 | x8 | x7 D | x8 | x8 | x8 | x7 |] %17
w: |||||||||||||||||
w: ||||||||||||let|||||
V:3
 G, | [G,B,][G,B,][G,B,][G,C] [G,D]2 [G,D][G,A,] | [G,B,][G,B,][G,B,][G,C] [G,D]4 | %3
 [D,D]2 [D,D]2 [D,D] [D,A,]2 [D,E] | [G,D]<[G,D] [G,D]>[G,C] [G,B,]3 G, | %5
 [G,B,][G,B,][G,B,][G,C] [G,D]2 [G,D][G,A,] | [G,B,][G,B,][G,B,][G,C] [G,D]4 | %7
 [C,E]2 [C,C]2 [D,B,] [D,D]2 [D,B,] | [D,D]<[D,D] [D,C]>[D,C] [G,,B,]4 || %9
 [G,B,]2 [G,B,]2 [G,B,] [G,D]3 | [G,D]2 [G,D]2 [G,D] [G,B,]2 [G,D] | %11
 [D,D][D,D][D,D][D,D] [D,D]2 [D,D][D,A,] | [E,A,][E,A,]A,A, [D,A,]3 [D,C] | %13
 [G,B,]>[G,A,] [G,B,][G,C] [G,D]3 [D,D] | [G,D]>[D,D] [G,D][G,A,] [G,B,]4 | %15
 [C,C]2 [C,C]2 [D,B,] [D,D]2 [D,B,] | [D,D]<[D,D] [D,C]>[D,C] [G,,B,]3 |] %17
V:4
 G, | x8 | x8 | x8 | x7 G, | x8 | x8 | x8 | x8 || x8 | x8 | x8 | x2 A,A, x4 | x8 | x8 | x8 | x7 |] %17

